packages/elements/bolt-icon/src/svgs/triangle.svg

<svg enable-background="new 0 0 32 32" viewBox="0 0 32 32" xmlns="http://www.w3.org/2000/svg"><path d="m26.6 19.3-1.1-1.8h1c.3.8 1 1.5 1.8 1.8 1.5.5 3.1-.4 3.5-1.9.2-.6.2-1.2 0-1.7-.5-1.5-2.1-2.3-3.6-1.8-.8.3-1.5.9-1.8 1.7-.6 0-1.3 0-2.2 0l-3-5-4.3-7.6c-.2-.4-.7-.7-1.1-.6-.3.1-.5.3-.7.6-.5.8-1 1.7-1.5 2.6l-1.1 1.9h-2.8c-.5-1.5-2.1-2.3-3.6-1.7s-2.2 2.1-1.7 3.6 2.2 2.2 3.6 1.7c.8-.3 1.4-.9 1.7-1.7h1.5l-11 18.6c-.2.3-.3.7-.1 1.1s.6.5 1 .5h29.8c.5 0 .9-.2 1-.6.1-.3 0-.7-.2-1-1.7-2.9-3.4-5.8-5.1-8.7zm-12.3-9.9h.7c.6 0 1-.4 1.1-1 0 0 0 0 0-.1-.1-.3-.3-.8-1.1-.8h-.3l1.3-2.3 3.6 6.1h-7.2c.4-.6.7-1.2 1.1-1.8zm2.9 6.1c-.8 0-1.2.5-1.2 1s.3 1 1.2 1h6.1c.5.9 1 1.7 1.5 2.6l.1.1h-17.8l1.7-2.9c.8-1.4 1.6-2.7 2.4-4.1l.1-.1h9.5c.4.7.8 1.4 1.3 2.2v.1zm-14.5 12.2 1.8-3.1c.5-.8 1-1.6 1.5-2.5h20.1l2.7 4.5.6 1h-26.7zm26.5-9.9c-.8 0-1.4-.6-1.4-1.3 0-.4.2-.8.4-1 .3-.3.6-.4 1-.4.8 0 1.4.6 1.4 1.4 0 .4-.1.8-.4 1s-.7.4-1 .3zm-20.7-9.3c0 .4-.2.8-.4 1-.3.3-.7.4-1.1.4-.8-.1-1.3-.7-1.3-1.4 0-.4.1-.8.4-1 .2-.3.5-.5.9-.5h.1c.7 0 1.4.7 1.4 1.5 0-.1 0-.1 0 0z" fill="#151619"/></svg>

<?xml version="1.0" encoding="utf-8"?>
<!-- Generator: Adobe Illustrator 25.2.0, SVG Export Plug-In . SVG Version: 6.00 Build 0)  -->
<svg version="1.1" id="Layer_1" xmlns="http://www.w3.org/2000/svg" xmlns:xlink="http://www.w3.org/1999/xlink" x="0px" y="0px"
	 viewBox="0 0 32 32" style="enable-background:new 0 0 32 32;" xml:space="preserve">
<style type="text/css">
	.st0{fill:#151619;}
</style>
<path class="st0" d="M26.6,19.3l-1.1-1.8h1c0.3,0.8,1,1.5,1.8,1.8c1.5,0.5,3.1-0.4,3.5-1.9c0.2-0.6,0.2-1.2,0-1.7
	c-0.5-1.5-2.1-2.3-3.6-1.8c-0.8,0.3-1.5,0.9-1.8,1.7c-0.6,0-1.3,0-2.2,0l-3-5L16.9,3c-0.2-0.4-0.7-0.7-1.1-0.6
	c-0.3,0.1-0.5,0.3-0.7,0.6c-0.5,0.8-1,1.7-1.5,2.6l-1.1,1.9H9.7C9.2,6,7.6,5.2,6.1,5.8S3.9,7.9,4.4,9.4s2.2,2.2,3.6,1.7
	c0.8-0.3,1.4-0.9,1.7-1.7h1.5L0.2,28c-0.2,0.3-0.3,0.7-0.1,1.1c0.2,0.4,0.6,0.5,1,0.5h29.8c0.5,0,0.9-0.2,1-0.6c0.1-0.3,0-0.7-0.2-1
	C30,25.1,28.3,22.2,26.6,19.3z M14.3,9.4H15c0.6,0,1-0.4,1.1-1c0,0,0,0,0-0.1C16,8,15.8,7.5,15,7.5h-0.3L16,5.2l3.6,6.1h-7.2
	c0.4-0.6,0.7-1.2,1.1-1.8L14.3,9.4z M17.2,15.5c-0.8,0-1.2,0.5-1.2,1c0,0.5,0.3,1,1.2,1h6.1c0.5,0.9,1,1.7,1.5,2.6l0.1,0.1H7.1
	l1.7-2.9c0.8-1.4,1.6-2.7,2.4-4.1l0.1-0.1h9.5c0.4,0.7,0.8,1.4,1.3,2.2v0.1L17.2,15.5z M2.7,27.7l1.8-3.1C5,23.8,5.5,23,6,22.1
	c6.7,0,13.4,0,20.1,0l2.7,4.5l0.6,1H2.7z M29.2,17.8c-0.8,0-1.4-0.6-1.4-1.3c0-0.4,0.2-0.8,0.4-1c0.3-0.3,0.6-0.4,1-0.4
	c0.8,0,1.4,0.6,1.4,1.4c0,0.4-0.1,0.8-0.4,1C29.9,17.7,29.5,17.9,29.2,17.8L29.2,17.8z M8.5,8.5c0,0.4-0.2,0.8-0.4,1
	C7.8,9.8,7.4,9.9,7,9.9C6.2,9.8,5.7,9.2,5.7,8.5c0-0.4,0.1-0.8,0.4-1C6.3,7.2,6.6,7,7,7h0.1C7.8,7,8.5,7.7,8.5,8.5
	C8.5,8.4,8.5,8.4,8.5,8.5z"/>
</svg>
